img/linkedine.svg

<svg height="14.159" viewBox="0 0 14.817 14.159" width="14.817" xmlns="http://www.w3.org/2000/svg"><path d="m14.817 18.239v5.478h-3.176v-5.111c0-1.284-.459-2.16-1.609-2.16a1.738 1.738 0 0 0 -1.632 1.161 2.173 2.173 0 0 0 -.105.774v5.335h-3.174s.043-8.657 0-9.553h3.179v1.354l-.021.031h.021v-.031a3.154 3.154 0 0 1 2.863-1.579c2.087.001 3.654 1.362 3.654 4.301zm-13.017-8.681a1.655 1.655 0 1 0 -.042 3.3h.021a1.656 1.656 0 1 0 .021-3.3zm-1.611 14.159h3.175v-9.554h-3.175z" fill="#919191" transform="translate(0 -9.558)"/></svg>

<svg xmlns="http://www.w3.org/2000/svg" width="14.817" height="14.159" viewBox="0 0 14.817 14.159">
  <path id="LinkedIn" d="M14.817,18.239v5.478H11.641V18.606c0-1.284-.459-2.16-1.609-2.16A1.738,1.738,0,0,0,8.4,17.607a2.173,2.173,0,0,0-.105.774v5.335H5.121s.043-8.657,0-9.553H8.3v1.354l-.021.031H8.3v-.031a3.154,3.154,0,0,1,2.863-1.579C13.25,13.939,14.817,15.3,14.817,18.239ZM1.8,9.558a1.655,1.655,0,1,0-.042,3.3h.021a1.656,1.656,0,1,0,.021-3.3ZM.189,23.717H3.364V14.163H.189Z" transform="translate(0 -9.558)" fill="#919191"/>
</svg>
